src/assets/svg/linkedin.svg

<svg width="38" height="38" viewBox="0 0 38 38" fill="none" xmlns="http://www.w3.org/2000/svg">
<circle cx="19" cy="19" r="19" fill="#4AA200"/>
<g clip-path="url(#clip0)">
<path d="M8.51709 10.0549C8.51709 9.22925 9.21108 8.55908 10.0666 8.55908H27.9331C28.7889 8.55908 29.4826 9.22925 29.4826 10.0549V27.9452C29.4826 28.7711 28.7889 29.4407 27.9331 29.4407H10.0666C9.21116 29.4407 8.51709 28.7711 8.51709 27.9454V10.0546V10.0549Z" fill="#006699"/>
<path d="M14.8881 26.0339V16.6329H11.7508V26.0339H14.8885H14.8881ZM13.3201 15.3496C14.414 15.3496 15.0949 14.6277 15.0949 13.7255C15.0745 12.8028 14.414 12.1011 13.3409 12.1011C12.2672 12.1011 11.5659 12.8028 11.5659 13.7254C11.5659 14.6276 12.2466 15.3495 13.2996 15.3495H13.3199L13.3201 15.3496ZM16.6247 26.0339H19.7617V20.7845C19.7617 20.5039 19.7822 20.2226 19.8651 20.0222C20.0918 19.4606 20.608 18.8792 21.4748 18.8792C22.6098 18.8792 23.064 19.7412 23.064 21.0051V26.0339H26.201V20.6436C26.201 17.7562 24.6535 16.4125 22.5895 16.4125C20.8972 16.4125 20.154 17.3545 19.7411 17.9961H19.762V16.6332H16.6248C16.6658 17.5151 16.6246 26.0342 16.6246 26.0342L16.6247 26.0339Z" fill="white"/>
</g>
<defs>
<clipPath id="clip0">
<rect width="20.9655" height="20.9655" fill="white" transform="translate(8.51709 8.51709)"/>
</clipPath>
</defs>
</svg>

<svg width="38" height="38" fill="none" xmlns="http://www.w3.org/2000/svg"><circle cx="19" cy="19" r="19" fill="#4AA200"/><g clip-path="url(#a)"><path d="M8.517 10.055c0-.826.694-1.496 1.55-1.496h17.866c.856 0 1.55.67 1.55 1.496v17.89c0 .826-.694 1.496-1.55 1.496H10.067c-.856 0-1.55-.67-1.55-1.496v-17.89z" fill="#069"/><path d="M14.888 26.034v-9.401h-3.137v9.4h3.138zM13.32 15.35c1.094 0 1.775-.722 1.775-1.624-.02-.923-.681-1.625-1.754-1.625-1.074 0-1.775.702-1.775 1.624 0 .903.68 1.625 1.734 1.625h.02zm3.305 10.684h3.137v-5.25c0-.28.02-.561.103-.762.227-.561.743-1.143 1.61-1.143 1.135 0 1.589.862 1.589 2.126v5.029h3.137v-5.39c0-2.888-1.547-4.231-3.611-4.231-1.693 0-2.436.942-2.849 1.583h.021v-1.363h-3.137c.04.882 0 9.401 0 9.401z" fill="#fff"/></g><defs><clipPath id="a"><path fill="#fff" transform="translate(8.517 8.517)" d="M0 0h20.965v20.965H0z"/></clipPath></defs></svg>
